X:326
T:Reel 326
M:4/4
K:Dmaj
L:1/8
dc|A>F (3FFF AFBF|GBAF E2EB|AFAd B>ABd|eAce d2dB|AGFd BFGB|AFDF E2EB|AFAd BGBd|cABc d2dB|A|dcde d2FA|AFGA BEEG|AFFE d2Fd|Beec dcdB|AFdF GFEF|ABBe eded|ceBA BABd|cABc d2|
